X: 100241
M: 6/8
L: 1/8
K: Amix
uf |\
(e2A) (c2A) | (c/d/)eA (c2A) | dBG GBd | gdB (.G2.f) |\
(e2A) (c2A) | (cd)eA (c2A) | ece eca ecA A2 :|
|: ue |\
(e2A) (c2A) | (c/d/)eA (c2A) | ece eca | ecA A2 :|


